component-icons/svg/daterangepicker.svg

<?xml version="1.0" encoding="utf-8"?>
<!-- Generator: Adobe Illustrator 22.1.0, SVG Export Plug-In . SVG Version: 6.00 Build 0)  -->
<svg version="1.1" id="Layer_1" xmlns="http://www.w3.org/2000/svg" xmlns:xlink="http://www.w3.org/1999/xlink" x="0px" y="0px"
	 viewBox="0 0 24 24" style="enable-background:new 0 0 24 24;" xml:space="preserve">
<style type="text/css">
	.st0{fill:#808080;}
</style>
<path class="st0" d="M13,5v3h-3V5H13z M17,5h-3v3h3V5z M6,9v3h3V9H6z M6,20h3v-3H6V20z M13,20v-3h-3v3H13z M19,19.2L16.2,22H4V4H2
	v20h15l4-4h0V4h-2V19.2z M0,0v2h22l2-2H0z M10,12h7v-1h-6v-1h6V9h-7V12z M6,15v1h7v-3H6v1h6v1H6z M17,16v-3h-3v3H17z"/>
</svg>

<svg id="Layer_1" data-name="Layer 1" xmlns="http://www.w3.org/2000/svg" viewBox="0 0 24 24">
  <defs>
    <style>
      .cls-1 {
        fill: gray;
      }
    </style>
  </defs>
  <title>daterangepicker</title>
  <path class="cls-1" d="M10,5V8h3V5ZM6,9v3H9V9Zm4,3h7V11H11V10h6V9H10Zm9,7.2L16.2,22H4V4H2V24H17l4-4V4H19ZM6,15v1h7V13H6v1h6v1ZM17,5H14V8h3ZM6,20H9V17H6ZM0,0V2H22l2-2ZM13,20V17H10v3Zm4-4V13H14v3Z"/>
</svg>
